X:7
T:Tween the Ditches
R:hornpipe
C:Jim McGraw
O:Co. Fermanagh, Ireland
S:http://www.cranfordpub.com/recordings/mcgraw.htm
D:Melodious Accord, Jim McGraw
Z:psc
H:Many years ago people from Boho, Monea and Derrygonnelly would gather in our house in Cullen to sing, dance and joke the night away> My father who performed in many a concert hall in Fermanagh would bid them farewell in the early hours with the usual warning to drivers "keep her tween the ditches"
L:1/8
Q:333
M:C|
K:D
ED|CDEF GECE|DFAd fdAF|GdcB AF ~F2|GBAF E2 ED|
CDEF GECE|DFAd fdAF|GdcB Aged|(3cBA (3GFE D2:|
||FG|:ADFA BG (3Bcd|cABc defe|dABd AdFA|BG (3Bcd e2dB|
AFEG FDDG|ADFA BGdB|Afed cAGB|[1AFEF D2 (3F=G^G:|[2AFEF D2|]
